resources/themes/cura/icons/category_shield.svg

<?xml version="1.0" encoding="UTF-8" standalone="no"?>
<!-- Generator: Adobe Illustrator 16.0.0, SVG Export Plug-In . SVG Version: 6.00 Build 0)  -->

<svg
   xmlns:i="&amp;#38;#38;#38;ns_ai;"
   xmlns:dc="http://purl.org/dc/elements/1.1/"
   xmlns:cc="http://creativecommons.org/ns#"
   xmlns:rdf="http://www.w3.org/1999/02/22-rdf-syntax-ns#"
   xmlns:svg="http://www.w3.org/2000/svg"
   xmlns="http://www.w3.org/2000/svg"
   xmlns:xlink="http://www.w3.org/1999/xlink"
   xmlns:sodipodi="http://sodipodi.sourceforge.net/DTD/sodipodi-0.dtd"
   xmlns:inkscape="http://www.inkscape.org/namespaces/inkscape"
   version="1.1"
   x="0px"
   y="0px"
   width="30px"
   height="30px"
   viewBox="0 0 30 30"
   enable-background="new 0 0 30 30"
   xml:space="preserve"
   id="svg2"
   inkscape:version="0.91 r13725"
   sodipodi:docname="category_shield.svg"><metadata
     id="metadata21"><rdf:RDF><cc:Work
         rdf:about=""><dc:format>image/svg+xml</dc:format><dc:type
           rdf:resource="http://purl.org/dc/dcmitype/StillImage" /></cc:Work></rdf:RDF></metadata><defs
     id="defs19" /><sodipodi:namedview
     pagecolor="#ffffff"
     bordercolor="#666666"
     borderopacity="1"
     objecttolerance="10"
     gridtolerance="10"
     guidetolerance="10"
     inkscape:pageopacity="0"
     inkscape:pageshadow="2"
     inkscape:window-width="1920"
     inkscape:window-height="1104"
     id="namedview17"
     showgrid="false"
     inkscape:zoom="22.627417"
     inkscape:cx="6.6965777"
     inkscape:cy="16.367089"
     inkscape:window-x="0"
     inkscape:window-y="27"
     inkscape:window-maximized="1"
     inkscape:current-layer="icon" /><switch
     id="switch4"
     style="fill:#000000"><foreignObject
       requiredExtensions="http://ns.adobe.com/AdobeIllustrator/10.0/"
       x="0"
       y="0"
       width="1"
       height="1"><i:pgfRef
         xlink:href="#adobe_illustrator_pgf" /></foreignObject><g
       i:extraneous="self"
       id="g6"
       style="fill:#000000"><g
         id="frame_30x30"
         display="none"
         style="fill:#000000"><rect
           display="inline"
           width="30"
           height="30"
           id="rect9"
           style="fill:#000000" /></g><g
         id="frame_24x24"
         display="none"
         style="fill:#000000"><rect
           x="3"
           y="3"
           display="inline"
           fill="#C6C7C8"
           width="24"
           height="24"
           id="rect12"
           style="fill:#000000" /></g><g
         id="icon"
         style="fill:#000000"><path
           d="m 20.337088,11 3,-8 -16.6741755,0 3,8 -6,16 22.6741755,0 z M 10.599912,10.648 8.1059125,4 21.893087,4 l -2.493,6.648 -0.131,0.352 0.132001,0.352 5.496311,14.653562 -19.7976496,0.0067 L 10.600913,11.352 10.730912,11 Z"
           id="path15"
           style="fill:#ffffff"
           inkscape:connector-curvature="0"
           sodipodi:nodetypes="cccccccccccccccccc" /><path
           style="fill:#ffffff"
           d="m 25.399588,3 -3,8 6,16 1.0625,0 -6,-16 3,-8 z"
           id="path3418"
           inkscape:connector-curvature="0"
           sodipodi:nodetypes="ccccccc" /><path
           style="fill:#ffffff"
           d="m 3.5379125,3 3,8 -6,16 1.0625,0 6,-16 -3,-8 -1.0625,0 z"
           id="path3414"
           inkscape:connector-curvature="0" /></g></g></switch><i:pgf
     id="adobe_illustrator_pgf" /></svg>

<svg xmlns="http://www.w3.org/2000/svg" viewBox="0 0 30 30">
    <switch>
        <g>
            <path d="M20.337 11l3-8H6.663l3 8-6 16h22.674zm-9.737-.352L8.106 4h13.787L19.4 10.648l-.13.352.131.352 5.496 14.654-19.797.006 5.5-14.66.13-.352z"/>
            <path d="M25.4 3l-3 8 6 16h1.062l-6-16 3-8zM3.538 3l3 8-6 16H1.6l6-16-3-8H3.538z"/>
        </g>
    </switch>
</svg>
